X:1
T:Title
%%score { 1 | 2 }
L:1/8
M:6/8
K:D
V:1 treble nm="Grand Piano"
V:2 bass 
V:1
 z3 z2[Q:1/4=100] [DF] | [FA]2 [GB] [FA]2 [EG] | [DF] [FA]2 [FA]2 [GB] | A3 G3 | F3- F2 [FA] | %5
 [GB]2 [Bd] [Ac]2 [GB] | [FA]2 [GB] [FA]2 F | E3 B3 | [CA]3- [CA]2 [DF] | [FA]2 [GB] [FA]2 [EG] | %10
 [DF] [FA]2 [FA]2 [GB] | [FA]3 [Ad]3 | B3- B2 B | B2 d c2 B | [FA]2 [GB] [FA]2 [B,EG] | %15
 [DF]3[K:bass] [G,CE]3 |[M:5/8] [F,D]-[F,D]- [F,D]3 |[M:1/8][K:treble] [FA] | %18
[M:3/4] [FA]>[GB] [FA] [DF]2 [FA] | [Fd]3 [FA]2 [Fd] | d>c d c2 B |[M:5/8] [FA]-[FA]- [FA]3 | %22
[M:1/8] [DF] |[M:3/4] [CA]2 [CE] [CE]2 [DF] | [EG]4- [EG][GB] | [FB]2 [FA] [DF]2 [EG] | %26
 [FA]3 [DF]2 [EG] | [FA]>[GB] [FA] [DF]2 [FA] | [Fd]3 [FA]2 [Fd] | d>c d c2 B | %30
[M:5/8] [FA]-[FA]- [FA]3 |[M:1/8] [FA] |[M:3/4] B2 d c2 B | [FA]2 [GB] [FA]2 [B,EG] | %34
 [DF]3[K:bass] [G,CE]3 |[M:5/8] [F,D]-[F,D]- [F,D]3 |] %36
V:2
 z3 z2 [D,A,] | [D,D]2 [D,D] [D,D]2 [D,A,] | [D,A,] [D,D]2 [D,D]2 [D,D] | [A,DF]3 [A,CE]3 | %4
 [D,A,D]3- [D,A,D]2 [D,D] | [G,D]2 [G,D] [G,D]2 [G,D] | [D,D]2 [D,D] [D,D]2 [D,A,D] | %7
 [E,A,C]3 [E,^G,D]3 | [A,,A,]3- [A,,A,]2 [D,A,] | [D,D]2 [D,D] [D,D]2 [D,D] | %10
 [D,A,] [D,D]2 [D,D]2 [D,D] | [D,D]3 [F,D]3 | [G,DG]3- [G,DG]2 [G,DG] | %13
 [G,DG]2 [G,B,G] [G,CG]2 [G,DG] | [D,D]2 [D,D] [D,D]2 G, | A,3 A,,3 |[M:5/8] D,-D,- D,3 | %17
[M:1/8] [D,D] |[M:3/4] [D,D]>[D,D] [D,D] [D,A,]2 [D,D] | [D,A,]3 [D,=C]2 [D,C] | %20
 [G,B,G]>[G,^A,G] [G,B,G] [G,CG]2 [G,DG] |[M:5/8][K:bass] [D,D]-[D,D]- [D,D]3 |[M:1/8] [D,A,] | %23
[M:3/4] [A,,A,]2 [A,,A,] [A,,A,]2 [A,,A,] | [A,,A,]4- [A,,A,][C,A,] | [D,D]2 [D,D] [D,A,]2 [D,A,] | %26
 [D,D]3 [D,A,]2 [D,A,] | [D,D]>[D,D] [D,D] [D,A,]2 [D,D] | [D,A,]3 [D,=C]2 [D,C] | %29
 [G,B,G]>[G,^A,G] [G,B,G] [G,CG]2 [G,DG] |[M:5/8][K:bass] [D,D]-[D,D]- [D,D]3 |[M:1/8] [D,D] | %32
[M:3/4][K:treble] [G,DG]2 [G,B,G] [G,CG]2 [G,DG] | [D,D]2 [D,D] [D,D]2 G, | A,3 A,,3 | %35
[M:5/8] D,-D,- D,3 |] %36

